X:6465
T:Thady Regan
O:england
R:polka
D:John McKenna & James Morrison 1928 (Columbia)
M:2/4
L:1/8
K:D
FG AB/c/|de de/f/|ge fd|1 BA A>G:|2 BA A2||
fa af|ed de|fa af|ed e2|fa af|ed de/f/|ge fd|BA A>G||


